X: 39731
T: Thadelo's
R: barndance
M: 4/4
K: Dmajor
A2 AB AFDE|F2 FE F3G|A2 AB AFDF|GEED E3F|
G2 GG GFEF|G2 GF G2 B2|ABAG FGFE|1 D2 DE DEFG:|2 D2 DE D4||
f2 df e2 ce|d2 A2 A3A|B2 BB B2 ed|c2 Bc ABde|
f2 df e2 ce|d2 A2 A3A|B2 BB c2 Bc|1 e2 d2 d3e:|2 e2 d2 d4||

